public/line-cta.svg

<svg width="1920" height="386" viewBox="0 0 1920 386" fill="none" xmlns="http://www.w3.org/2000/svg">
<path d="M-1 0.99707C60 5.49707 183.8 40.2971 191 143.497C200 272.497 137.5 198.997 154 183.497C170.5 167.997 300 215.497 393 183.497C486 151.497 586 130.997 643 255.997C700 380.997 974.5 192.497 1010.5 208.997C1042.53 223.678 1128.4 318.321 1189.56 329.497C1197.13 330.882 1204.33 330.985 1211 329.497C1271.5 315.997 1134.12 281.497 1189.56 329.497C1208.54 355.997 1263.4 397.497 1331 351.497C1415.5 293.997 1430.5 237.497 1517.5 335.997C1587.1 414.797 1749.5 379.164 1822 351.497C1893.33 332.164 2037.6 296.497 2044 308.497" stroke="#B8926A" stroke-width="2"/>
</svg>

<svg xmlns="http://www.w3.org/2000/svg" width="1920" height="386" fill="none" viewBox="0 0 1920 386"><path stroke="#b8926a" stroke-width="2" d="M-1 .997c61 4.5 184.8 39.3 192 142.5 9 129-53.5 55.5-37 40s146 32 239 0 193-52.5 250 72.5 331.5-63.5 367.5-47c32.03 14.681 117.9 109.324 179.06 120.5 7.57 1.385 14.77 1.488 21.44 0 60.5-13.5-76.88-48-21.44 0 18.98 26.5 73.84 68 141.44 22 84.5-57.5 99.5-114 186.5-15.5 69.6 78.8 232 43.167 304.5 15.5 71.33-19.333 215.6-55 222-43"/></svg>
